X:1
T:5 Songs from the Chinese Poets, 1st Series
T:The Old Fisherman of the Mists and Waters
T:To my Friend Alvin Langdon Coburn 
T:Five Songs from the Chinese Poets, 1st Series
T:Granville Bantock
T:1. The Old Fisherman of the Mists and Waters
T:Launcelot Cranmer-Byng after Zhizhang He 
T:Creative Commons copyright waiver (CC0 1.0 Universal)
T:Creative Commons copyright waiver (CC0 1.0 Universal)
T:Creative Commons copyright waiver (CC0 1.0 Universal)
T:Creative Commons copyright waiver (CC0 1.0 Universal)
T:Creative Commons copyright waiver (CC0 1.0 Universal)
C:Granville Bantock
Z:Zhizhang He
Z:Creative Commons copyright waiver (CC0 1.0 Universal)
L:1/8
M:2/2
K:C
V:1 treble nm="Voice"
V:1
 z8 | z8 | z8 | z8 | z8 | z8 | z8 | z8 | z8 | z8 | z8 | z8 | z8 | z8 | z8 | z8 | z8 | z8 | z8 | %19
w: |||||||||||||||||||
w: |||||||||||||||||||
 z8 | z8 | z8 | z8 | z8 | z8 | z8 | z8 | z8 | z8 | z8 || z8 | z8 | z8 | z8 | z2 E2 G2 E2 | A8- | %36
w: |||||||||||||||The La- dy|Moon|
w: |||||||||||||||Mon seul A-|\- mour|
 A2 z2 z4 | z8 | z8 | z8 | z8 | z8 | z2 z2 G4 | A8- | A2 z2 z4 | z8 | z8 | A4- (3A2 G2 A2 | z8 | %49
w: _||||||The|heavens|_|||dawn _ is my||
w: _||||||Le|ciel|_|||aube _ est ma||
 z8 | z8 | z8 | z8 | z8 | z4 B2 d2 | %55
w: |||||Or the|
w: |||||O con-|
"^Note to transcriber:\nFor the French lyrics we follow the standard\nof starting a new system with a dash when the\nword starts on the previous system.\n" e4 d4 | %56
w: sea- gull,|
w: \- dors, ô|
 z8 | z8 | z8 | z8 | z8 | z4 (G2 A2) | c4 d2 c2 | z8 | z8 | z8 | G4 A2 G2 | E8- | E4 z4 | z8 | z8 | %71
w: |||||Than _|bu- ry my||||dust of the|whirl|_|||
w: |||||Que d'al-|ler mè- ler||||vil tour- bil-|\- lon|_|||
 z8 | z8 | z8 | z8 | z8 | z8 | z8 | z8 | z8 | z8 | z8 | z8 | z8 | z8 | z8 | z8 |] %87
w: ||||||||||||||||
w: ||||||||||||||||

